X:1
T:Fuggi, fuggi mio cor
T:Fuggi, fuggi mio cor
T:Giovanni Felice Sances
T:Source : Cantate et arie a voce sola---LibroIV---Venetia---A.Vincenti---1636. Editor : André Vierendeels (06/04/15). 
C:Giovanni Felice Sances
%%score 1 { ( 2 4 ) | 3 }
L:1/8
Q:1/4=120
M:3/2
K:C
V:1 treble nm="Canto" snm="C"
V:2 treble nm="BC" snm="BC"
V:4 treble 
V:3 bass 
V:1
 z4 G2 A2 B2 c2 | d4 A4 B4 | c4 c4 c4 | B12 | G4 G4 G4 | A4 B2 A2 B2 c2 | A12 | G8 B4 | %8
w: Fug- * * *|* gi, _|fug- gi mio|cor|l'es- ca del|dol- ce _ _ _|sguar-|do che|
w: Fug- * * *|* gi, _|fug- gi pur|tu|non la- sciar|che ti _ _ _|pren-|da, non|
w: Fug- * * *|* gi, _|fug- gi si|si|al- tro non|son ch'in- * * *|gan-|ni, non|
 A4 ^F2 G2 A2 B2 | G4 E2 ^F2 G2 A2 | ^F12 | z4 z4 d4 | c4 B4 c4 | c4 B4 c4 | A8 c4 | %15
w: sot- to'a _ _ _|quei bei _ _ _|rai,|nas-|cos- to'el _|dar- * *|do, che|
w: con- sen- * * *|tir ch'in _ _ _|te|suo|fo- co'ac- *|cen- * *|da, non|
w: son ch'in- * * *|* gan- * * *|ni,|le|lu- sin- ghe'a-|mo- ro- *|so, non-|
 B4 G2 A2 B2 c2 | A4 ^F2 G2 A2 B2 | G12 | z4 e4 d4 | c12- | c4 d4 c4 | B4 A4 B4 | B4 A8 | G12 :: %24
w: sot- to'a _ _ _|quei bei _ _ _|rai,|nas- *|cos-||* sto'e'l _|dar- *|do.|
w: con- sen- * * *|tir ch'in _ _ _|te,|suo fo-|co-||* * ac-|cen- *|da.|
w: son ch'in- * * *|* gan- * * *|ni,|le lu-|sin-|* gh'a- mo-|ro- so'al- tre|ch'a- fan-|ni.|
 A4 G6 ^F2 | G4 ^F6 E2 | ^F8 F4 | G8 A4 | B2 A2 B2 c2 d2 B2 | c8 c4 |"^Adagio" B4 B4 B4 | B8 A4 | %32
w: Ten- de'i suoi|lac- * ci'og-|n'hor e|par che|scher- * * * * *|* zi,-|il fa- re-|tra- to'Ar-|
w: Che non po-|tre- * sti|piu da|le sua|man _ _ _ _ _|_ i|ti- ran- ni-|che fug-|
w: E se gia|t'in- * va-|ghi del|dol- ce|ba- * * * * *|* le-|nar d'un ci-|glio A-|
 B12 |"^Presto" B4 e4 d4 | c4 B4 c4 | A4 ^G4 A4 | B8 e4 | f4 e4 d4 | c4 B4 c4 | A12 | G4 A4 B4 | %41
w: cier|ma s'e- gli|puo le- *|gar- * *|ti non|gio- * va'il|tuo po- *|ter|per rom- per|
w: fir|ma sol ar-|so'e le- *|ga- * *|to, ti|con- * ver-|a lan- *|guir|fin ch'e- sa-|
w: mor,|non piu, non|piu t'al- *|let- * *|ti, il|fal- * so|tra- di- *|tor,|che- _ non|
 c4 B6 A2 | B8 B4 |"^Adagio" z4 e8 | e12 | e4 d4 _e4 | _e4 d8 | c12 |"^Presto" z4 G2 A2 B2 c2 | %49
w: rai _ le-|gar- ti,|le-|gar-|ti, sca- te-|nar- *|ti.|Fug- * * *|
w: li _ tu|fu- or,-|tu|fu-|or l'ul- ti-|mo fia-|to.||
w: sa, che non|_ sa|lam-|pe-|giar che non|fa- et-|ti.||
 d4 A4 B4 | c4 c4 c4 | B12 | z4 e8- | e12 | e4 f2 e2 d2 c2 | B12 | A12 |"^-natural" z4 d4 c4 | %58
w: * gi _|dun- que cor|mio,|fug-||* gi'o _ mio _|co-|re,|son li|
w: |||||||||
w: |||||||||
 B6 c2 A2 B2 | G6 A2 F2 G2 | E4 ^F4 G4 | A12 | G4 ^F4 G4 | G4 ^F8 | E12 | z4 e4 d4 | c6 d2 B2 c2 | %67
w: scher- * * *||* zi d'A-|mor|fro- di d'A-|mo- *|re,|son gli|scher- * * *|
w: |||||||||
w: |||||||||
 A4 B6 c2 | d6 e2 c2 d2 | B6 c2 A2 B2 | G6 G2 F4 | E12 | c2 B2 c2 B2 c2 d2 | B2 A2 B2 A2 B2 c2 | %74
w: |||* zi d'A-|mor|fro- * * * * *||
w: |||||||
w: |||||||
 A4 A4 B4 | A12 | G12 :| %77
w: * di d'A-|mo-|re.|
w: |||
w: |||
V:2
 [DB]12 | [DA]12 | [Ac]8 [Ad]4 | [DB]12 | [DG]12 | [Ec]12 | [^FA]12 | [DB]12 | [Ad]12 | [E^c]12 | %10
 [Ad]12 | d8 c4 | A12 | [B,^G]12 | [Ec]12 | [DG]12 | A12 | B12 | [Gc]12 | [Ec]12 | %20
 [Ac]4 [Gd]4 [Ac]4 | [GB]4 [Ec]4 [GB]4 | [DB]4 [^FA]8 | [DB]12 :: [Ad]12 | ^c12 | [DA]12 | %27
 [DG]8 [D^F]4 | [DG]12 | [Gc]12 | [^GB]12 | [EA]12 | B12 | [EB]12 | [Ec]12 | [Ac]12 | %36
 [^GB]8 [Ec]4 | d12 | [^GB]12 | [Ec]12 | [Ec]12 | [Ec]8 [^FA]4 | [DG]12 | [Gc]12 | [Ec]12 | %45
 [Ac]12 | G12 | [EG]12 | [DB]12 | [Ad]12 | [Ac]8 [DA]4 | [DB]12 | [Gc-]12 | c8 B4 | [Ac]4 [Fd]8 | %55
 [^GB]12 | [A^c]12 | [DA]12 | [DB]12 | [Gc]12 | [Ec]12 | [Ec]12 | c12 | [^DB]12 | [^GB]12 | %65
 [Ec]12 | [EA]12 | [DA]12- | [DA]12 | [DB-]12 | B12 | [EG]12 | [EA]12 | G4 d8 | A4 A4 G4 | A4 d8 | %76
 [GB]12 :| %77
V:3
 G,12 | ^F,12 | E,8 ^F,4 | G,4 G,,4 A,,4 | B,,12 | C,12 | D,12 | G,12 | ^F,12 | E,12 | D,8 E,4 | %11
 ^F,4 ^G,8 | A,8 D,4 | E,12 | A,,12 | B,,12 | C,4 D,8 | E,8 D,4 | C,8 B,,4 | A,,4 A,4 G,4 | ^F,12 | %21
 G,4 C,8 | D,12 | G,,12 :: ^F,12 | E,12 | D,8 C,4 | B,,8 A,,4 | G,,4 G,4 F,4 | E,12 | D,12 | C,12 | %32
"^#" B,,4 B,4 A,4 | ^G,12 | A,8 G,4 | F,12 | E,8 C,4 | D,12 | E,12 | A,,8 B,,4 | C,8 B,,4 | %41
 A,,8 D,4 | G,,4 G,4 F,4 | E,8 D,4 | C,4 D,4 E,4 | F,8 ^F,4 | G,12 | C,4 C,2 D,2 E,2 ^F,2 | G,12 | %49
 ^F,12 | E,8 ^F,4 | G,8 F,4 | E,8 D,4 | C,4 D,4 E,4 | F,4 D,8 | E,12 | A,,4 A,4 G,4 | ^F,12 | %58
 G,8 F,4 | E,8 D,4 | C,8 B,,4 | A,,8 B,,4 | C,8 A,,4 |"^#" B,,12 | E,8 D,4 | C,4 C4 B,4 | A,8 G,4 | %67
 ^F,8 E,4 | D,4 E,4 ^F,4 | G,8 F,4 | E,8 D,4 | C,8 B,,4 | A,,12 | B,,12 | C,12 | D,12 | G,,12 :| %77
V:4
 x12 | x12 | x12 | x12 | x12 | x12 | x12 | x12 | x12 | x12 | x12 | A4 B4 E4 | E8 D4 | x12 | x12 | %15
 x12 | E4 ^F8 | E8 G4 | x12 | x12 | x12 | x12 | x12 | x12 :: x12 | G4 ^F4 E4 | x12 | x12 | x12 | %29
 x12 | x12 | x12 | ^D4 E4 z4 | x12 | x12 | x12 | x12 | A4 E4 ^F4 | x12 | x12 | x12 | x12 | x12 | %43
 x12 | x12 | x12 | C4 D8 | x12 | x12 | x12 | x12 | x12 | x12 | E4 ^F4 ^G4 | x12 | x12 | x12 | x12 | %58
 x12 | x12 | x12 | x12 | E4 D4 E4 | x12 | x12 | x12 | x12 | x12 | x12 | x12 | G8 D4 | x12 | x12 | %73
 D4 G8 | E12 | ^F4 G4 F4 | x12 :| %77

